static/sponsors/fis.svg

<svg xmlns="http://www.w3.org/2000/svg" width="240" height="100" viewBox="0 0 240 100"><g fill="#FFF4E2"><path d="M178.99 40.042c0-1.514-1.223-2.717-2.716-2.717H144.79c-5.744 0-10.433 4.417-10.433 10.163s4.646 10.163 10.433 10.163h25.283c2.468 0 4.48 2.24 4.48 4.71 0 2.467-2.013 4.687-4.46 4.687H138.61c-1.515 0-2.718 1.224-2.718 2.717s1.225 2.717 2.718 2.717h31.483c5.745 0 10.433-4.417 10.433-10.162 0-5.746-4.688-10.163-10.433-10.163H144.79c-2.467 0-4.48-2.24-4.48-4.708s2.014-4.708 4.48-4.708h31.484c1.515.06 2.717-1.185 2.717-2.698M123.47 25.17c0-2.198-1.763-3.96-3.962-3.96-2.198 0-3.96 1.763-3.96 3.96 0 2.2 1.762 3.962 3.96 3.962 2.2.02 3.962-1.763 3.962-3.96"/><path opacity=".8" d="M110.818 25.17c0-2.198-1.763-3.96-3.962-3.96-2.198 0-3.96 1.763-3.96 3.96 0 2.2 1.762 3.962 3.96 3.962 2.2 0 3.962-1.763 3.962-3.96"/><path opacity=".6" d="M98.188 25.17c0-2.198-1.763-3.96-3.962-3.96s-3.962 1.763-3.962 3.96c0 2.2 1.763 3.962 3.962 3.962 2.177.02 3.962-1.763 3.962-3.96"/><path opacity=".4" d="M85.535 25.17c0-2.198-1.763-3.96-3.96-3.96s-3.983 1.763-3.983 3.96c0 2.2 1.763 3.962 3.962 3.962 2.198 0 3.98-1.763 3.98-3.96"/><path opacity=".2" d="M72.884 25.17c0-2.198-1.763-3.96-3.96-3.96-2.2 0-3.963 1.763-3.963 3.96 0 2.2 1.764 3.962 3.963 3.962 2.198 0 3.96-1.763 3.96-3.96"/><path d="M101.88 37.325c-.084 0-.167.02-.23.02v-.02H74.875c-10.64 0-17.857 6.99-17.857 17.608v14.87c0 1.64 1.327 2.967 2.966 2.967s2.966-1.328 2.966-2.966v-14.87c0-7.385 4.48-12.134 11.905-12.134h26.775v-.02c.083 0 .166.02.23.02 1.513 0 2.716-1.224 2.716-2.718.04-1.554-1.183-2.757-2.697-2.757"/><path d="M65.936 54.933c0 1.514 1.224 2.717 2.717 2.717h27.274c1.514 0 2.716-1.224 2.716-2.717s-1.223-2.717-2.716-2.717H68.652c-1.47 0-2.716 1.224-2.716 2.717M116.52 40.042v29.763c0 1.638 1.328 2.986 2.967 2.986s2.986-1.327 2.986-2.985V40.042c0-1.638-1.327-2.966-2.986-2.966-1.617 0-2.966 1.327-2.966 2.966"/></g></svg>

<?xml version="1.0" encoding="UTF-8" standalone="no"?>
<!DOCTYPE svg PUBLIC "-//W3C//DTD SVG 1.1//EN" "http://www.w3.org/Graphics/SVG/1.1/DTD/svg11.dtd">
<svg width="100%" height="100%" viewBox="0 0 240 100" version="1.1" xmlns="http://www.w3.org/2000/svg" xmlns:xlink="http://www.w3.org/1999/xlink" xml:space="preserve" xmlns:serif="http://www.serif.com/" style="fill-rule:evenodd;clip-rule:evenodd;stroke-linejoin:round;stroke-miterlimit:2;">
    <g>
        <path d="M178.99,40.042C178.99,38.528 177.767,37.325 176.274,37.325L144.79,37.325C139.046,37.325 134.357,41.742 134.357,47.488C134.357,53.234 139.003,57.651 144.79,57.651L170.073,57.651C172.541,57.651 174.553,59.891 174.553,62.361C174.553,64.828 172.54,67.048 170.093,67.048L138.61,67.048C137.095,67.048 135.892,68.272 135.892,69.765C135.892,71.258 137.117,72.482 138.61,72.482L170.093,72.482C175.838,72.482 180.526,68.065 180.526,62.32C180.526,56.574 175.838,52.157 170.093,52.157L144.79,52.157C142.323,52.157 140.31,49.917 140.31,47.449C140.31,44.981 142.324,42.741 144.79,42.741L176.274,42.741C177.789,42.801 178.991,41.556 178.991,40.043M123.47,25.17C123.47,22.972 121.707,21.21 119.508,21.21C117.31,21.21 115.548,22.973 115.548,25.17C115.548,27.37 117.31,29.132 119.508,29.132C121.708,29.152 123.47,27.369 123.47,25.172" style="fill:rgb(48,66,242);fill-rule:nonzero;"/>
        <path d="M110.818,25.17C110.818,22.972 109.055,21.21 106.856,21.21C104.658,21.21 102.896,22.973 102.896,25.17C102.896,27.37 104.658,29.132 106.856,29.132C109.056,29.132 110.818,27.369 110.818,25.172" style="fill:rgb(48,66,242);fill-opacity:0.8;fill-rule:nonzero;"/>
        <path d="M98.188,25.17C98.188,22.972 96.425,21.21 94.226,21.21C92.027,21.21 90.264,22.973 90.264,25.17C90.264,27.37 92.027,29.132 94.226,29.132C96.403,29.152 98.188,27.369 98.188,25.172" style="fill:rgb(48,66,242);fill-opacity:0.6;fill-rule:nonzero;"/>
        <path d="M85.535,25.17C85.535,22.972 83.772,21.21 81.575,21.21C79.378,21.21 77.592,22.973 77.592,25.17C77.592,27.37 79.355,29.132 81.554,29.132C83.752,29.132 85.534,27.369 85.534,25.172" style="fill:rgb(48,66,242);fill-opacity:0.4;fill-rule:nonzero;"/>
        <path d="M72.884,25.17C72.884,22.972 71.121,21.21 68.924,21.21C66.724,21.21 64.961,22.973 64.961,25.17C64.961,27.37 66.725,29.132 68.924,29.132C71.122,29.132 72.884,27.369 72.884,25.172" style="fill:rgb(48,66,242);fill-opacity:0.2;fill-rule:nonzero;"/>
        <path d="M101.88,37.325C101.796,37.325 101.713,37.345 101.65,37.345L101.65,37.325L74.875,37.325C64.235,37.325 57.018,44.315 57.018,54.933L57.018,69.803C57.018,71.443 58.345,72.77 59.984,72.77C61.623,72.77 62.95,71.442 62.95,69.804L62.95,54.934C62.95,47.549 67.43,42.8 74.855,42.8L101.63,42.8L101.63,42.78C101.713,42.78 101.796,42.8 101.86,42.8C103.373,42.8 104.576,41.576 104.576,40.082C104.616,38.528 103.393,37.325 101.879,37.325" style="fill:rgb(48,66,242);fill-rule:nonzero;"/>
        <path d="M65.936,54.933C65.936,56.447 67.16,57.65 68.653,57.65L95.927,57.65C97.441,57.65 98.643,56.426 98.643,54.933C98.643,53.44 97.42,52.216 95.927,52.216L68.652,52.216C67.182,52.216 65.936,53.44 65.936,54.933M116.52,40.042L116.52,69.805C116.52,71.443 117.848,72.791 119.487,72.791C121.126,72.791 122.473,71.464 122.473,69.806L122.473,40.042C122.473,38.404 121.146,37.076 119.487,37.076C117.87,37.076 116.521,38.403 116.521,40.042" style="fill:rgb(48,66,242);fill-rule:nonzero;"/>
    </g>
</svg>
